wp-content/themes/FoundationPress/dist/assets/images/best/icon-face.svg

<?xml version="1.0" encoding="UTF-8"?>
<svg width="95px" height="95px" viewBox="0 0 95 95" version="1.1" xmlns="http://www.w3.org/2000/svg" xmlns:xlink="http://www.w3.org/1999/xlink">
    <!-- Generator: Sketch 48.2 (47327) - http://www.bohemiancoding.com/sketch -->
    <title>Group 32</title>
    <desc>Created with Sketch.</desc>
    <defs></defs>
    <g id="Home-Revised-Final" stroke="none" stroke-width="1" fill="none" fill-rule="evenodd" transform="translate(-673.000000, -990.000000)">
        <g id="Group-32" transform="translate(673.000000, 990.000000)" fill="#B0DF2F" fill-rule="nonzero">
            <path d="M27.5263862,30.0510204 L24.2346939,30.0510204 C24.6774533,25.7028508 28.4207161,22.2959184 32.9591837,22.2959184 C37.4983855,22.2959184 41.2416483,25.7028508 41.6836735,30.0510204 L38.3919812,30.0510204 C37.966844,27.469836 35.7031172,25.4877521 32.9591837,25.4877521 C30.2152501,25.4877521 27.9515233,27.469836 27.5263862,30.0510204 Z M59.1326531,25.4877521 C61.8765866,25.4877521 64.1410477,27.469836 64.5654506,30.0510204 L67.8571429,30.0510204 C67.4151177,25.7028508 63.6718549,22.2959184 59.1326531,22.2959184 C54.5934513,22.2959184 50.8501884,25.7028508 50.4081633,30.0510204 L53.6998556,30.0510204 C54.1242584,27.469836 56.3879853,25.4877521 59.1326531,25.4877521 Z M95,47.5 C95,21.3082031 73.6917969,0 47.5,0 C21.3082031,0 0,21.3089453 0,47.5 C0,73.6917969 21.3082031,95 47.5,95 C73.6917969,95 95,73.6917969 95,47.5 Z M91.122449,47.5 C91.122449,71.553567 71.5539245,91.122449 47.5,91.122449 C23.4460755,91.122449 3.87755102,71.553567 3.87755102,47.5 C3.87755102,23.4472302 23.4460755,3.87755102 47.5,3.87755102 C71.5539245,3.87755102 91.122449,23.4472302 91.122449,47.5 Z M69.6443063,58.6748864 C70.0295414,57.8040576 69.6553551,56.7764796 68.80828,56.3804419 C67.9656244,55.9859186 66.9631295,56.3705977 66.5771579,57.239912 C62.829403,65.7066394 54.5811012,71.1777159 45.5623294,71.1777159 C36.5406112,71.1777159 28.2908363,65.7066394 24.5452911,57.239912 C24.1600561,56.3705977 23.1597709,55.9836468 22.3141689,56.3804419 C21.4670938,56.7764796 21.0929076,57.8040576 21.4781426,58.6748864 C25.7687622,68.3744044 35.2213838,74.6428571 45.5623294,74.6428571 C55.8988554,74.6428571 65.351477,68.3744044 69.6443063,58.6748864 Z M32.4752282,38.7755102 C30.0666901,38.7755102 28.1122449,40.7288093 28.1122449,43.1377551 C28.1122449,45.5459624 30.0674285,47.5 32.4752282,47.5 C34.8830279,47.5 36.8367347,45.5467009 36.8367347,43.1377551 C36.8359963,40.7288093 34.8830279,38.7755102 32.4752282,38.7755102 Z M59.6173469,38.7755102 C57.2069242,38.7755102 55.255102,40.7288093 55.255102,43.1377551 C55.255102,45.5459624 57.2061857,47.5 59.6173469,47.5 C62.0285082,47.5 63.9795918,45.5467009 63.9795918,43.1377551 C63.9795918,40.7288093 62.0285082,38.7755102 59.6173469,38.7755102 Z" id="icon_23_"></path>
        </g>
    </g>
</svg>

<svg width="95" height="95" viewBox="0 0 95 95" xmlns="http://www.w3.org/2000/svg"><title>Group 32</title><path d="M27.526 30.051h-3.291c.442-4.348 4.186-7.755 8.724-7.755 4.54 0 8.283 3.407 8.725 7.755h-3.292c-.425-2.581-2.689-4.563-5.433-4.563-2.744 0-5.007 1.982-5.433 4.563zm31.607-4.563c2.744 0 5.008 1.982 5.432 4.563h3.292c-.442-4.348-4.185-7.755-8.724-7.755-4.54 0-8.283 3.407-8.725 7.755H53.7c.424-2.581 2.688-4.563 5.433-4.563zM95 47.5C95 21.308 73.692 0 47.5 0S0 21.309 0 47.5C0 73.692 21.308 95 47.5 95S95 73.692 95 47.5zm-3.878 0c0 24.054-19.568 43.622-43.622 43.622S3.878 71.554 3.878 47.5c0-24.053 19.568-43.622 43.622-43.622S91.122 23.448 91.122 47.5zM69.644 58.675c.386-.87.011-1.899-.836-2.295-.842-.394-1.845-.01-2.23.86-3.749 8.467-11.997 13.938-21.016 13.938-9.021 0-17.271-5.471-21.017-13.938-.385-.87-1.385-1.256-2.23-.86-.848.396-1.222 1.424-.837 2.295 4.29 9.7 13.743 15.968 24.084 15.968 10.337 0 19.79-6.269 24.082-15.968zm-37.169-19.9a4.363 4.363 0 0 0 0 8.725 4.363 4.363 0 0 0 0-8.724zm27.142 0a4.362 4.362 0 1 0 0 8.725 4.361 4.361 0 0 0 4.363-4.362 4.361 4.361 0 0 0-4.363-4.362z" fill="#B0DF2F" fill-rule="nonzero"/></svg>
